X: 24975
T: Maid Of Mount Kisco, The
R: reel
M: 4/4
K: Adorian
|EA (3AAA BGAG|EA (3AAA BGAG|EG (3GGG AG (3GGG|EG (3GGG EGDG|
EA (3AAA BGAG|EA (3AAA BABd|eg (3ggg afge|1 dBGB A3 G:|2 dBGB A2 dB||
A3B dBAB|(3GGG BG DGBG|A2 AB dABd|egfe dBAG|
A3B dBAB|G2BG DGBG|A3 B dABd|egfe [Dd]3 g||
|:ea (3aaa bgaf|gedB GABd|ea (3aaa bgaf|gedg efge|
(3aaa af gage|dedB GABd|eA (3AAA efge|1 dBGB A3 d:|2 dBGB A3G||

